X: 1
T: Swedish Walking Tune
T: G\aangl\aat fr\aan Vigelsj\"o av Sten Blomstr\"om
T: G\aangl\aat fr\aan Elitkapell S\"odert\"alje
C: Sten Blomstr\"om
O: arr. Andy Reiner / Rustic Roots
R: march
S: https://www.patreon.com/posts/rustic-roots-27198819
Z: 2020 John Chambers <jc:trillian.mit.edu>
M: 2/2
L: 1/8
K: G
"^A"|:\
"G"B4 A2GF | G2G2 D4 | B4 AGAc | B2B2 "D"A2Bc |\
"G"d2d2 G2AB | "C"c4 "G"B4 | "D"ABAG FDEF |1 "G"G2G2 G2A2 :|2 "G"G2B2 c2d2 |
"^B"|:\
"C"e3d cBcd | e2g2 f2e2 | "G"d3c BABc | d2f2 e2d2 |\
"D"c3B AGFG | A8 |1 cBA2 cBA2 | "G"B2e2 d2g2 |2 "D"ABAG FDEF | "G"G2G2 G4 |]
